X:1
T:Title
%%score { 1 | 2 }
L:1/8
M:6/8
K:D
V:1 treble nm="Grand Piano"
V:2 bass 
V:1
 z3 z2[Q:1/4=90] [FA] | [Fd][Fd][Fd] [Ac][GB][FA] | [DG][FA][GB] [FA]3 | %3
 [Fd] [Fd]2 [A,FA] [A,FA]2 |[M:5/8] [A,DF] [A,DF]2 [A,CE]2 |[M:1/8] A | %6
[M:3/4] [Fd][Fd] [Fd][Ac] [GB][FA] | [DG][FA] [GB] [FA]2 [FA] | [Fd][FA] G F2 [CE] | %9
[M:5/8] D-D- D3 |[M:1/8] A |[M:3/4] [CA][CA] [CA][EG] [DF][CE] | [DF][EG] [GB] [FA]3 | %13
 [Fd] [Fd]2 c c2 |[M:5/8] B B2 [A,CA]2 |[M:1/8] A |[M:3/4] [Fd][Fd] [Fd][Ac] [GB][FA] | %17
 [DG][FA] [GB] [FA]2 [FA] | [Fd][A,FA] [B,EG] [DF]2[K:bass] [A,CE] |[M:5/8] [F,D]-[F,D]- [F,D]3 |] %20
V:2
 z3 z2 [D,A,] | [D,A,][D,A,][D,A,] [D,D][D,D][D,D] | [D,B,][D,A,][D,D] [D,D]3 | %3
 [D,A,] [D,A,]2 D, D,2 |[M:5/8] D, D,2 A,,2 |[M:1/8] A, | %6
[M:3/4] [D,A,][D,A,] [D,A,][D,D] [D,D][D,D] | [D,B,][D,A,] [D,D] [D,D]2 [D,A,] | %8
 [D,A,][D,A,] [G,B,E] [A,D]2 [A,,G,] |[M:5/8] [D,F,]-[D,F,]- [D,F,]3 |[M:1/8] [D,F,D] | %11
[M:3/4] [A,,E,][A,,E,] [A,,E,][A,,A,] [A,,A,][A,,A,] | [D,A,][D,A,] [D,D] [D,D]3 | %13
 [D,A,] [D,A,]2 [E,A,E] [E,A,E]2 |[M:5/8] [E,^G,D] [E,G,D]2 A,,2 |[M:1/8] A, | %16
[M:3/4] [D,A,][D,A,] [D,A,][D,D] [D,D][D,D] | [D,B,][D,A,] [D,D] [D,D]2 [D,D] | %18
 [D,A,]D, G, A,2 A,, |[M:5/8] D,-D,- D,3 |] %20

